X: 18
T:Drowsy Maggie
R:reel
N:There is also a Donegal version, #464.
Z:id:hn-reel-18
M:C|
K:Edor
~E2BE dEBE|~E2BE AFDF|~E2BE dEBE|1 BABc dAFD:|2 BABc dAFA||
d2fd c2ec|dffd faaf|d2fd cdec|BABc dAFA|
d2fd c2ec|defg a2ga|bgaf gfed|BABc dAFD||
"Version 2:"
|:~E2BE dEBE|~E2BE AFDF|~E2BE dEBE|1 BABc dAFD:|2 BABc dAFA||
d2fd c2ec|defg afge|1 d2fd cdec|BABc dAFA:|2 afge fdec| BABc dAFD||

